X: 1
T: Dillon Brown
M: 4/4
L: 1/8
R: reel
K: Gmaj
BGAG EGDG | BGAG cedc | BGAG EGDE | GBAG EGG2 :|
Bddf egdc | Bddf efg2 | Bddf egdc | BGAG EGG2 |
Bddf egdc | Bddf efg2 | gfge dcBd | cABG EGG2 ||
